img/home-icon.svg

<svg width="20" height="20" fill="none" xmlns="http://www.w3.org/2000/svg"><path fill-rule="evenodd" clip-rule="evenodd" d="M3 18h5v-6h4v6h5v-7h2L10 1 1 11h2v7z" fill="#fff"/></svg>

<svg width="20" height="20" viewBox="0 0 20 20" fill="none" xmlns="http://www.w3.org/2000/svg">
<path fill-rule="evenodd" clip-rule="evenodd" d="M3 18H8V12H12V18H17V11H19L10 1L1 11H3V18Z" fill="white"/>
</svg>
